X:7735
%16831
T:The High Hill
C:Ed Reavy
B:Where_The_Shannon_Rises, By Ed Reavy
M:C|
R:Reel
K:Cmaj
E:10
EF |: GC (3EDC G,CCD | EFGB cBGF | GC (3edc G,CEG |\
\GE=CE G2FG | AD (3FED A,DDE |*
E:9
EFGA {_Bc}BABd | cBGF EFGE | FD_B,D C2EF ::\
GccB c2Bc | dc (3cBc dccB | GFGA _BABc |*
d_B {c}(BAB dBcB 
%Error : Bar 10 is 9/8 not 2/2
| Gc{d}c=B c2Bc | dc {d}(3cBc dcc_B |\
GFGA _Bcdc |1 _BGFD CDEF :|2 _BGFD c2 
%Error : Bar 15 is 3/4 not 2/2
||**


